packages/icons/svg/Outline/corner-down-left.svg

<svg width="24" height="24" viewBox="0 0 24 24" fill="none" xmlns="http://www.w3.org/2000/svg">
<g id="Icon/Outline/corner-down-left">
<path id="Mask" fill-rule="evenodd" clip-rule="evenodd" d="M19.9705 5.996C19.9685 5.445 19.5205 5 18.9705 5H18.9665C18.4145 5.002 17.9685 5.452 17.9705 6.004L17.9915 11.004C17.9915 11.271 17.8895 11.523 17.7015 11.712C17.5125 11.902 17.2625 12.007 16.9955 12.008L8.07651 12.045L10.7625 8.659C11.1055 8.226 11.0325 7.597 10.6005 7.254C10.1685 6.911 9.53951 6.985 9.19551 7.416L5.21651 12.432C4.92551 12.799 4.92851 13.317 5.22151 13.682L9.24151 18.665C9.43951 18.91 9.72851 19.037 10.0205 19.037C10.2415 19.037 10.4635 18.964 10.6485 18.815C11.0775 18.469 11.1455 17.839 10.7985 17.409L8.08451 14.045L17.0035 14.008C17.8045 14.005 18.5565 13.69 19.1215 13.121C19.6855 12.552 19.9945 11.797 19.9915 10.996L19.9705 5.996Z" fill="#000000"/>
</g>
</svg>

<svg fill="none" height="24" viewBox="0 0 24 24" width="24" xmlns="http://www.w3.org/2000/svg"><path clip-rule="evenodd" d="m19.9705 5.996c-.002-.551-.45-.996-1-.996h-.004c-.552.002-.998.452-.996 1.004l.021 5c0 .267-.102.519-.29.708-.189.19-.439.295-.706.296l-8.91899.037 2.68599-3.386c.343-.433.27-1.062-.162-1.405s-1.06099-.269-1.40499.162l-3.979 5.016c-.291.367-.288.885.005 1.25l4.02 4.983c.198.245.487.372.77899.372.221 0 .443-.073.628-.222.429-.346.497-.976.15-1.406l-2.71399-3.364 8.91899-.037c.801-.003 1.553-.318 2.118-.887.564-.569.873-1.324.87-2.125z" fill="#6b7280" fill-rule="evenodd"/></svg>
